img/play.svg

<svg width="31" height="31" viewBox="0 0 31 31" fill="none" xmlns="http://www.w3.org/2000/svg">
<circle cx="15.5417" cy="15.6758" r="15" fill="white"/>
<path d="M19.0996 14.934L14.6618 11.8959C14.4569 11.7555 14.2504 11.6812 14.0788 11.6812C13.7469 11.6812 13.5417 11.9475 13.5417 12.3933V18.9594C13.5417 19.4047 13.7467 19.6705 14.0777 19.6705C14.2496 19.6705 14.4528 19.5961 14.6582 19.4553L19.098 16.4173C19.3835 16.2216 19.5417 15.9583 19.5417 15.6755C19.5417 15.3929 19.3854 15.1296 19.0996 14.934Z" fill="black"/>
</svg>

<svg width="31" height="31" fill="none" xmlns="http://www.w3.org/2000/svg"><circle cx="15.542" cy="15.676" r="15" fill="#fff"/><path d="M19.1 14.934l-4.438-3.038c-.205-.14-.412-.215-.583-.215-.332 0-.537.267-.537.712v6.566c0 .446.205.712.536.712.172 0 .375-.075.58-.216l4.44-3.038c.286-.195.444-.459.444-.742 0-.282-.157-.545-.442-.741z" fill="#000"/></svg>
